svgs/light/tablet-screen.svg

<svg xmlns="http://www.w3.org/2000/svg" viewBox="0 0 448 512"><!-- Font Awesome Pro 6.0.0-alpha2 by @fontawesome - https://fontawesome.com License - https://fontawesome.com/license (Commercial License) --><path d="M384 0H64C28.654 0 0 28.654 0 64V448C0 483.346 28.654 512 64 512H384C419.348 512 448 483.346 448 448V64C448 28.654 419.348 0 384 0ZM416 448C416 465.645 401.645 480 384 480H64C46.355 480 32 465.645 32 448V352H416V448ZM416 320H32V64C32 46.355 46.355 32 64 32H384C401.645 32 416 46.355 416 64V320ZM192 432H256C264.836 432 272 424.836 272 416C272 407.162 264.836 400 256 400H192C183.164 400 176 407.162 176 416C176 424.836 183.164 432 192 432Z"/></svg>

<svg xmlns="http://www.w3.org/2000/svg" viewBox="0 0 448 512"><!--! Font Awesome Pro 6.0.0-alpha3 by @fontawesome - https://fontawesome.com License - https://fontawesome.com/license (Commercial License) --><path d="M384 .0001H64c-35.35 0-64 28.65-64 64v384c0 35.35 28.65 63.1 64 63.1h320c35.35 0 64-28.65 64-63.1v-384C448 28.65 419.3 .0001 384 .0001zM416 448c0 17.64-14.36 32-32 32H64c-17.64 0-32-14.36-32-32v-96h384V448zM416 320H32V64c0-17.64 14.36-32 32-32h320c17.64 0 32 14.36 32 32V320zM192 432h64c8.836 0 16-7.164 16-16c0-8.838-7.164-16-16-16H192c-8.836 0-16 7.162-16 16C176 424.8 183.2 432 192 432z"/></svg>
